X: 2679
T: Banks Of Allan, The
R: jig
M: 6/8
K: Dmajor
|:~F3 FED|~F3 AFA|Bed Aed|Bde AFD|
~F3 FED|~F3 AFA|Bed AFD|FEE EFG:|
|:eff fed|efa afd|eff fed|g2a bag|
fed ~e3|d2e fed|Bed AFD|FEE EFG:|

